modules/hawcons-filled/icons/icon-12-tennis-ball.svg

<?xml version="1.0" encoding="UTF-8" standalone="no"?>
<svg width="32px" height="32px" viewBox="0 0 32 32" version="1.1" xmlns="http://www.w3.org/2000/svg" xmlns:xlink="http://www.w3.org/1999/xlink" xmlns:sketch="http://www.bohemiancoding.com/sketch/ns">
    <!-- Generator: Sketch 3.0.3 (7891) - http://www.bohemiancoding.com/sketch -->
    <title>icon 12 tennis ball</title>
    <desc>Created with Sketch.</desc>
    <defs></defs>
    <g id="Page-1" stroke="none" stroke-width="1" fill="none" fill-rule="evenodd" sketch:type="MSPage">
        <g id="icon-12-tennis-ball" sketch:type="MSArtboardGroup" fill="#929292">
            <path d="M27.7489979,11.0427809 C27.7069617,10.956292 27.9305091,11.4207654 28.0656972,11.7495494 C28.6678973,13.2141292 29,14.8182812 29,16.5 C29,18.456623 28.5504479,20.3082474 27.7489979,21.9572191 C27.5066527,21.7092432 27.2446302,21.4805799 26.9654552,21.273754 C25.8850756,20.473358 24.5478174,20 23.1000004,20 C21.6437896,20 20.0396486,20.8681896 19,21.3999939 C18.5736084,21.618103 17.4868586,22 16.5,22 C13.4624337,22 11,19.5375663 11,16.5 C11,13.4624337 13.4624337,11 16.5,11 C17.4868586,11 18.1576514,11.1788319 19,11.6000061 C20,12.1000061 21.6437896,13 23.1000004,13 C24.5478174,13 25.8850756,12.526642 26.9654552,11.726246 C27.2446302,11.5194201 27.5066527,11.2907568 27.7489979,11.0427809 L27.7489979,11.0427809 Z M27.2471571,10.1127511 C27.3092281,10.2169669 27.1357089,9.9227911 26.9764514,9.67869562 C24.7457966,6.25974979 20.8867949,4 16.5,4 C9.59644029,4 4,9.59644029 4,16.5 C4,23.4035597 9.59644029,29 16.5,29 C21.0698815,29 25.0669947,26.5476888 27.2471571,22.8872489 C27.0216159,22.6285622 26.7722663,22.3911743 26.5025235,22.1785004 C25.5663848,21.4404186 24.3846253,21 23.1000004,21 C21.8773035,21 20.6691182,21.6476988 19.8345591,22.0738494 C19,22.5 17.7120806,23 16.5,23 C12.9101489,23 10,20.0898511 10,16.5 C10,12.9101489 12.9101489,10 16.5,10 C17.7120806,10 18.6358553,10.3188595 19.8179276,10.9094298 C21,11.5 21.8773035,12 23.1000004,12 C24.3846253,12 25.5663848,11.5595814 26.5025235,10.8214996 C26.7722663,10.6088257 27.0216159,10.3714378 27.2471571,10.1127511 L27.2471571,10.1127511 Z" id="tennis-ball" sketch:type="MSShapeGroup"></path>
        </g>
    </g>
</svg>

<svg width="32" height="32" xmlns="http://www.w3.org/2000/svg"><path d="M27.749 11.043c-.042-.087.182.378.317.707.602 1.464.934 3.068.934 4.75 0 1.957-.45 3.808-1.251 5.457A6.471 6.471 0 0 0 23.1 20c-1.456 0-3.06.868-4.1 1.4-.426.218-1.513.6-2.5.6a5.5 5.5 0 1 1 0-11c.987 0 1.658.179 2.5.6 1 .5 2.644 1.4 4.1 1.4a6.471 6.471 0 0 0 4.649-1.957zm-.502-.93c.062.104-.111-.19-.27-.434A12.49 12.49 0 0 0 16.5 4C9.596 4 4 9.596 4 16.5S9.596 29 16.5 29c4.57 0 8.567-2.452 10.747-6.113A5.477 5.477 0 0 0 23.1 21c-1.223 0-2.43.648-3.265 1.074C19 22.5 17.712 23 16.5 23a6.5 6.5 0 1 1 0-13c1.212 0 2.136.319 3.318.91C21 11.5 21.878 12 23.1 12a5.477 5.477 0 0 0 4.147-1.887z" fill="#929292" fill-rule="evenodd"/></svg>
